X: 2
T: Down The Back Lane
R: jig
M: 6/8
L: 1/8
K: Dmix
ABG A2G|FDE F2d|cAA BAG|Ade fed|cAG A2G|FDE F2G|Add fed|e^cA ~G3:||:Add fed|cAB cAG|Add fed|e^cA ~G3|Add fed|cAB cde|fag efd|cAF ~G3:|


Tune 1496	Setting 25894

